X:45
T: Wiedersehen an der Bahre
N: Q0056A
O: Mitteleuropa, Schweiz, Kt. Zuerich, Wehntal
R: Ballade, Abschied, Enttaeuschung, Tod, Selbstmord
M: 3/4
L: 1/16
K: F
C2 | F3FF4G2G2 | A3AA6
A2 | G2A2c4B2G2 | G4A4z2
A2 | B2d2d4c2B2 | A2f2c4A2
A2 | G2c2c4B2G2 | G4A4z2
A2 | B2d2d4c2B2 | A2f2c4A2
A2 | G2c2c4B2G2 | G4A4z2

